X: 1933
T: Vecd-i Dil Peşrev
C: Rûhî Ayangil
O: Turkey
F: http://compmusic.upf.edu/node/140
N: vecdidil--pesrev--muhammes----ruhi_ayangil
N: makam= vecdidil
N: form= pesrev
N: usul= muhammes = 32/4
M: 32/4
L: 1/16
K: C _1/4B ^f  
Q: 1/4=66
%%MIDI tuningsystem comma53
g6 ^3/4f2 f2 e2 f2 g2  | a2 g2 g2 ^3/4f2 (3fef g4 f e  | \
w:  1. HANE  |   | 
e4 e2 a2 g2 ^3/4f2 g4  | 
w:   | 
a2 _2/4b2 c' d' c'2 b2 a2 a2 g2  | \
w:   | 
^3/4f2 e f {a}g2 f e d6 e =f  | d6 d e ^c4-^c d e f  | 
w:   |   | 
g2 ^2/4f e e2 =b2 a2 g2 g2 ^f2  | \
w:   | 
(3fef g4 f e e6 z2  | e ^3/4f g f a g =f e e d d ^c =B2 c2  | 
w:   |   | 
A4 =B2 ^c2 d2 e2 ^3/4f4  | g3 ^2/4f e2 d2 c2 =B2 B2 A B  | \
w:   |   | 
A2 e2 d2 c =B A2 (3BAG ^3/4F2 z2  | 
w:   | 
G A G2 A2 e2 d3 ^c _7/8B A G2  | A2 _7/8B ^c B A G ^3/4F G6 F2  | \
w:   |   | 
^1/4F2 E F E2 =B2 A2 ^G2 ^2/4F2 E F  | 
w:   | 
A ^G ^2/4F E E D D ^C D6 z2  | e2 =f e d2 a2 g6 ^3/4f2  | \
w:   |  MÜLÂZİME  | 
(3^3/4fef g4 f e e6 z2  | 
w:   | 
e2 =f e d2 c2 _2/4B2 c2 A2 e2  | d2 c _2/4B A2 (3BAG ^3/4F6 z2  | \
w:   |   | 
d2 ^c d e =f e d c3 _7/8B A2 G2  | 
w:   | 
A2 _2/4B ^c B A G ^3/4F G6 F2  | ^3/4F2 G F E2 =B2 A3 ^G ^1/4F2 E F  | \
w:   |   | 
A ^G ^1/4F E E D D ^C D6 z2  | 
w:   | 
G3 G G2 d2 e2 =f e d2 g2  | =f3 e e d d ^c d4 G2 g2  | \
w:  2. HANE  |   | 
=f3 e d2 a2 g2 a _b a g f e  | 
w:   | 
=f e d g f e d ^c d6 z2  | c2 d4 c d _e2 d c _B A B g  | 
w:   |   | 
=f _e d e d c _B A B2 A G ^3/4F4  | \
w:   | 
G A _B2 A2 G2 ^3/4F3 _7/8E D2 B2  | 
w:   | 
A G ^3/4F G F _7/8E E D D6 z2  | z2 d2 _B A G2 _e3 d c4  | \
w:   |   | 
z2 c2 A G =F2 d3 c _B4  | 
w:   | 
A2 _B A B2 d2 c2 B2 A2 G2  | =F2 G2 A2 G F _7/8E2 D E C4  | \
w:   |   | 
D3 _3/4E =F2 G2 A2 G _B A2 F2  | 
w:   | 
d6 c d c2 _B2 A2 G2  | =F3 G F _7/8E E D D6 e d  | \
w:   |   | 
^c2 d2 e2 ^1/4f e e8  | 
w:   | 
e2 =f e d2 a2 g6 ^3/4f2  | (3^3/4fef g4 f e e6 z2  | \
w:  MÜLÂZİME  |   | 
e2 =f e d2 c2 _2/4B2 c2 A2 e2  | 
w:   | 
d2 c _2/4B A2 (3BAG ^3/4F6 z2  | d2 ^c d e =f e d c3 _7/8B A2 G2  | \
w:   |   | 
A2 _2/4B ^c B A G ^3/4F G6 F2  | 
w:   | 
^3/4F2 G F E2 =B2 A3 ^G ^1/4F2 E F  | \
w:   | 
A ^G ^1/4F E E D D ^C D6 z2  | =b3 a ^g2 b2 a2 g2 a2 ^1/4f e  | 
w:   |  3. HANE  | 
d2 d'2 c'2 =b c' b a a ^g a4  | a2 d2 e2 ^1/4f ^g f2 g a b a a g  | 
w:   |   | 
a6 ^g ^1/4f e d ^c _7/8B A4  | _7/8B2 ^c2 d2 e =f e4 d2 e2  | \
w:   |   | 
^3/4f2 g a g4 f2 g2 a2 =b c'  | 
w:   | 
b2 a2 g2 f2 g3 f e2 b2  | a3 g f2 (3gfg e6 z2  | \
w:   |   | 
^g2 a4 e2 ^1/4f2 g2 a2 g f  | 
w:   | 
e2 d2 ^c2 d2 e2 ^1/4f e e2 z2  | d2 e4 ^c2 d2 _7/8B2 c2 B A  | \
w:   |   | 
G2 A2 _7/8B2 d2 ^c B B A B2 z2  | 
w:   | 
A2 a2 g2 f2 a2 g ^1/4f e2 d2  | ^c2 d2 e2 ^1/4f2 e d c _7/8B A4  | \
w:   |   | 
G2 A4 c2 =B2 A2 G2 F2  | 
w:   | 
=B2 A G G F F E E6 z2  | e2 =f e d2 a2 g6 ^3/4f2  | \
w:   |  MÜLÂZİME  | 
(3^3/4fef g4 f e e6 z2  | 
w:   | 
e2 =f e d2 c2 _2/4B2 c2 A2 e2  | d2 c _2/4B A2 (3BAG ^3/4F6 z2  | \
w:   |   | 
d2 ^c d e =f e d c3 _7/8B A2 G2  | 
w:   | 
A2 _2/4B ^c B A G ^3/4F G6 F2  | ^3/4F2 G F E2 =B2 A3 ^G ^1/4F2 E F  | \
w:   |   | 
A ^G ^1/4F E E D D ^C D6 z2  | 
w:   | 
d6 ^c2 d2 e2 d2 c2  | =B4 d4 ^c2 d2 B4  | \
w:  4. HANE  |   | 
=B2 ^c2 d2 e2 =f4 e2 g2  | =f3 e f e d ^c =B6 z2  | 
w:   |   | 
^c2 =B2 c2 A2 B2 c2 d2 e2  | =f2 e f e d d ^c d6 e2  | \
w:   |   | 
e2 =B2 B2 G2 A2 F2 G2 E2  | 
w:   | 
E2 =B2 A2 G F E6 z2  | e6 d2 ^c4 g4  | \
w:   |   | 
f4 e4 e4 b4  | a4 g4 g4 f2 a2  | g2 f2 {g}f2 e2 e6 z2  | 
w:   |   |   | 
^c2 d2 e2 f2 g4 =f2 e2  | d2 ^c2 _7/8B2 A2 B3 A G4  | \
w:   |   | 
F2 G2 F2 E2 E4 =B4  | A3 ^G ^1/4F3 E D4 D2 z2  | 
w:   |   | 
e2 =f e d2 a2 g6 ^3/4f2  | (3^3/4fef g4 f e e6 z2  | \
w:  MÜLÂZİME  |   | 
e2 =f e d2 c2 _2/4B2 c2 A2 e2  | 
w:   | 
d2 c _2/4B A2 (3BAG ^3/4F6 z2  | d2 ^c d e =f e d c3 _7/8B A2 G2  | \
w:   |   | 
A2 _2/4B ^c B A G ^3/4F G6 F2  | 
w:   | 
^3/4F2 G F E2 =B2 A3 ^G ^1/4F2 E F  | \
w:   | 
A ^G ^1/4F E E D D ^C D6 z2  | |


